app/assets/images/icons/facebook.svg

<svg width="16" height="16" viewBox="0 0 16 16" fill="none" xmlns="http://www.w3.org/2000/svg">
<path d="M11.5936 2.0106L4.40638 2.0106C3.08324 2.0106 2.01062 3.08322 2.01062 4.40636L2.01062 11.5936C2.01062 12.9168 3.08324 13.9894 4.40638 13.9894L7.1016 13.9894L7.1016 10.3958L5.00532 10.3958V8.59894H7.1016V7.88021C7.1016 6.29244 8.38874 5.0053 9.97651 5.0053H10.9947L10.9947 6.80212H9.61715C9.22021 6.80212 8.89842 7.1239 8.89842 7.52085V8.59894H10.9947V10.3958H8.89842L8.89842 13.9894H11.5936C12.9168 13.9894 13.9894 12.9168 13.9894 11.5936L13.9894 4.40636C13.9894 3.08322 12.9168 2.0106 11.5936 2.0106Z" fill="#1D3557"/>
</svg>

<svg
  xmlns="http://www.w3.org/2000/svg"
  width="16"
  height="16"
  fill="none"
  class="social-icon"
  viewBox="0 0 16 16"
  data-v-3d4a5b90=""
>
  <path
    fill="currentColor"
    d="M11.594 2.01H4.406a2.396 2.396 0 0 0-2.395 2.396v7.188a2.396 2.396 0 0 0 2.395 2.395h2.696v-3.593H5.005V8.599h2.097V7.88a2.875 2.875 0 0 1 2.875-2.875h1.018v1.797H9.617a.72.72 0 0 0-.719.719v1.078h2.097v1.797H8.898v3.593h2.696a2.396 2.396 0 0 0 2.395-2.395V4.406a2.396 2.396 0 0 0-2.395-2.395"
  ></path>
</svg>
